svg/fluentui-system-icons/ic_fluent_share_screen_stop_28_filled.svg

<svg width="28" height="28" viewBox="0 0 28 28" fill="none" xmlns="http://www.w3.org/2000/svg">
<path d="M4.25 4.99902H23.75C24.9926 4.99902 26 6.00638 26 7.24902V20.7496C26 21.9923 24.9926 22.9996 23.75 22.9996H4.25C3.00736 22.9996 2 21.9923 2 20.7496V7.24902C2 6.00638 3.00736 4.99902 4.25 4.99902ZM11.2781 10.2171C10.9852 9.92421 10.5103 9.92421 10.2174 10.2171C9.92452 10.51 9.92452 10.9849 10.2174 11.2778L12.9374 13.9978L10.217 16.722C9.92435 17.0151 9.92468 17.49 10.2178 17.7826C10.5109 18.0753 10.9858 18.075 11.2784 17.7819L13.9981 15.0585L16.7219 17.7823C17.0148 18.0752 17.4897 18.0752 17.7826 17.7823C18.0755 17.4894 18.0755 17.0145 17.7826 16.7216L15.0591 13.9982L17.7818 11.283C18.0751 10.9905 18.0758 10.5157 17.7833 10.2224C17.4908 9.92905 17.016 9.92839 16.7227 10.2209L13.9985 12.9375L11.2781 10.2171Z" fill="#212121"/>
</svg>

<svg xmlns="http://www.w3.org/2000/svg" width="28" height="28"><path d="M4.25 4.999h19.5A2.25 2.25 0 0 1 26 7.249v13.5A2.25 2.25 0 0 1 23.75 23H4.25A2.25 2.25 0 0 1 2 20.75V7.25A2.25 2.25 0 0 1 4.25 5Zm7.028 5.218a.75.75 0 0 0-1.06 1.06l2.72 2.72-2.721 2.725a.75.75 0 0 0 1.061 1.06l2.72-2.723 2.724 2.723a.75.75 0 0 0 1.06-1.06l-2.723-2.724 2.723-2.715a.75.75 0 1 0-1.06-1.062l-2.724 2.716-2.72-2.72Z"/></svg>
